X: 161
T: The Seven Stars
%R: jig
B: Chas & Sam Thompson "Twenty Four Country Dances for the Year 1779", London 1779, p.81 #1
F: http://www.vwml.org/browse/browse-collections-dance-tune-books/browse-thompsons1779
Z: 2014 John Chambers <jc:trillian.mit.edu> (added dance description)
M: 6/8
L: 1/8
K: G
% - - - - - - - - - - - - - - - - - - - - - - - - - - - - -
|:\
[g3B3D3G,3] dBG | g(e/f/g) dBG |\
ecA dBG | cAF G"^G."[BD]"^F."[dG,] |\
[g3B3D3G,3] dBG | g(e/f/g) dBG |\
ecA dBG | cAF [G3G,3] :|
|:\
B2c dBd | ege dBd |\
ege dBG | cAF G[BD][dB,] |\
B2c dBd | ege dBd |\
ege dBG | cAF [G3G,3] :|
|:\
(B2G) (c2A) | (B2G) (c2A) |\
B2g dBG | cAF G"^G."[BD]"^F."[dB,] |\
[B2B,2][GG,] [c2C2][A2A,2] | [B2B,2][GG,] [c2C2][AA,] |\
G2B dBG | cAF [G3G,3] :|
% - - - - - - - - - - Dance description - - - - - - - - - -
%%begintext align
%%   Whole figure down and up again on your own
%% sides .|. Cast off two Cu and lead up, 2d & 3d
%% Cu.s follow :| Cross over two Cu .|: lead up to the
%% top and cast off :|: lead to the Wall 3 & return .|:.
%% Hands Six round :|:.
%%endtext

%%sep 1 1 500
%%sep 1 1 500
